Sources/OversizeUI/Resources/Icons.xcassets/Base/User 3.imageset/3 User.svg

<svg height="24" viewBox="0 0 24 24" width="24" xmlns="http://www.w3.org/2000/svg"><g style="stroke:#000;stroke-width:1.5;fill:none;fill-rule:evenodd;stroke-linecap:round;stroke-linejoin:round" transform="translate(1 3.5)"><path d="m16.8877 7.3967c1.395-.196 2.469-1.392 2.472-2.841 0-1.428-1.041-2.612-2.406-2.836"/><path d="m18.7285 10.7503c1.351.202 2.294.675 2.294 1.65 0 .671-.444 1.107-1.162 1.381"/><path d="m10.8867 11.1638c-3.214 0-5.959.487-5.959 2.432 0 1.944 2.728 2.445 5.959 2.445 3.214 0 5.958-.482 5.958-2.428s-2.727-2.449-5.958-2.449z"/><path d="m10.8867 8.3879c2.109 0 3.819-1.709 3.819-3.819 0-2.109-1.71-3.819-3.819-3.819s-3.81902817 1.71-3.81902817 3.819c-.00797183 2.102 1.68902817 3.812 3.79102817 3.819z"/><path d="m4.8848 7.3967c-1.396-.196-2.469-1.392-2.472-2.841 0-1.428 1.041-2.612 2.406-2.836"/><path d="m3.0439 10.7503c-1.351.202-2.294.675-2.294 1.65 0 .671.444 1.107 1.162 1.381"/></g></svg>

<?xml version="1.0" encoding="UTF-8"?>
<svg width="24px"  height="24px"  viewBox="0 0 24 24" version="1.1" xmlns="http://www.w3.org/2000/svg" xmlns:xlink="http://www.w3.org/1999/xlink">
    <title>Iconly/Light/3 User</title>
    <g id="Iconly/Light/3-User" stroke="#000000"  stroke-width="2"  fill="none" fill-rule="evenodd" stroke-linecap="round" stroke-linejoin="round">
        <g id="3-User" transform="translate(1.000000, 3.500000)" stroke="#000000"  stroke-width="2" >
            <path d="M16.8877,7.3967 C18.2827,7.2007 19.3567,6.0047 19.3597,4.5557 C19.3597,3.1277 18.3187,1.9437 16.9537,1.7197" id="Stroke-1"></path>
            <path d="M18.7285,10.7503 C20.0795,10.9523 21.0225,11.4253 21.0225,12.4003 C21.0225,13.0713 20.5785,13.5073 19.8605,13.7813" id="Stroke-3"></path>
            <path d="M10.8867,11.1638 C7.6727,11.1638 4.9277,11.6508 4.9277,13.5958 C4.9277,15.5398 7.6557,16.0408 10.8867,16.0408 C14.1007,16.0408 16.8447,15.5588 16.8447,13.6128 C16.8447,11.6668 14.1177,11.1638 10.8867,11.1638 Z" id="Stroke-5"></path>
            <path d="M10.8867,8.3879 C12.9957,8.3879 14.7057,6.6789 14.7057,4.5689 C14.7057,2.4599 12.9957,0.7499 10.8867,0.7499 C8.7777,0.7499 7.06767183,2.4599 7.06767183,4.5689 C7.0597,6.6709 8.7567,8.3809 10.8587,8.3879 L10.8867,8.3879 Z" id="Stroke-7"></path>
            <path d="M4.8848,7.3967 C3.4888,7.2007 2.4158,6.0047 2.4128,4.5557 C2.4128,3.1277 3.4538,1.9437 4.8188,1.7197" id="Stroke-9"></path>
            <path d="M3.0439,10.7503 C1.6929,10.9523 0.7499,11.4253 0.7499,12.4003 C0.7499,13.0713 1.1939,13.5073 1.9119,13.7813" id="Stroke-11"></path>
        </g>
    </g>
</svg>
